X:4
T: Ablakomba besütott a holdvilág...
O: Válaszút, Kallós Györgyné - Szakács Juliska "Minácsi", 1962
M:10/8
L:1/4
K:F
(3:2:2 BG/ G/G (3:2:2 cB/ B/B | c B3/2 A z3/2 | 
G/=B/ d/d e/d/ d _B/ | A/(A/ A3/2) A z3/2 | 
G/=B/ d/d e/<d/ d d/ | ^c B3/2 =c z3/2 | 
B/>G/ G/G (3:2:2 cB/ A ^F/ | G/(G/G3/2) G z3/2 | 




